X: 332
T: Zicong laile gongchandang
L: 1/8
M: 4/4
K: D
e2a B dA2G [I:setbarnb 1]| 
A> B A DE4 | 
E =c=c2dA2G | 
A> B A DE4 | 
A2A Ad2e a | 
e d c B A/ B/A3- | 
A6B A | 
G2E4A2 | 
E D C B,A,4 | 
AA2EA2d G | 
AE2D EE2A | 
E D C B,A,4 |]

@@@ Tune index: 9206
